X:782
T:Here's to Our Friends
S:Bruce & Emmett's Drummers and Fifers Guide (1862), p. 78
M:6/8
L:1/8
Q:1/8=270
K:G
%%MIDI program 72
%%MIDI transpose 8
%%MIDI ratio 3 1
B/c/|:dBG {A}GFG|g3-gfe|dBA {A}GFG|A3-A2 B/c/|dBG {A}GFG|
EAB cde|edB edA|[1 G3-G2 B/c/:|[2 G3-G2|:F/G/|AFG Ade|f3-fgf|
fe^d efe|d^cB AFG|AFG Ade|f3-fgf|fe^d efe|d3-d2:|
